communes/5561.svg

<?xml version="1.0" encoding="UTF-8"?>
<svg version="1.0" viewBox="0 0 603 763" xmlns="http://www.w3.org/2000/svg" xmlns:cc="http://creativecommons.org/ns#" xmlns:dc="http://purl.org/dc/elements/1.1/" xmlns:rdf="http://www.w3.org/1999/02/22-rdf-syntax-ns#" xmlns:xlink="http://www.w3.org/1999/xlink">
<metadata>
<rdf:RDF>
<cc:Work rdf:about="">
<dc:format>image/svg+xml</dc:format>
<dc:type rdf:resource="http://purl.org/dc/dcmitype/StillImage"/>
<dc:date>07-AUG-2006</dc:date>
<dc:creator>
<cc:Agent>
<dc:title>Jérôme BLUM (wagner51)</dc:title>
</cc:Agent>
</dc:creator>
<cc:license rdf:resource="http://creativecommons.org/licenses/GPL/2.0/"/>
<dc:coverage/>
<dc:description>Gabarit pour le Projet:Blasons de WIkipédia</dc:description>
<dc:subject>
<rdf:Bag>
<rdf:li>blason suisse modèle gabarit projet blasons</rdf:li>
</rdf:Bag>
</dc:subject>
<dc:language>fr</dc:language>
<dc:title>Gabrit d'un blason suisse</dc:title>
</cc:Work>
<cc:License rdf:about="http://creativecommons.org/licenses/GPL/2.0/">
<cc:permits rdf:resource="http://web.resource.org/cc/Reproduction"/>
<cc:permits rdf:resource="http://web.resource.org/cc/Distribution"/>
<cc:requires rdf:resource="http://web.resource.org/cc/Notice"/>
<cc:permits rdf:resource="http://web.resource.org/cc/DerivativeWorks"/>
<cc:requires rdf:resource="http://web.resource.org/cc/ShareAlike"/>
<cc:requires rdf:resource="http://web.resource.org/cc/SourceCode"/>
</cc:License>
</rdf:RDF>
</metadata>
<defs>
<radialGradient id="a" cx="858.04" cy="579.93" r="300" gradientTransform="matrix(1.215 1.5316e-24 1.4647e-23 1.2667 -839.19 -490.49)" gradientUnits="userSpaceOnUse">
<stop stop-color="#fff" stop-opacity=".31373" offset="0"/>
<stop stop-color="#fff" stop-opacity=".25098" offset=".19"/>
<stop stop-color="#6b6b6b" stop-opacity=".12549" offset=".6"/>
<stop stop-opacity=".12549" offset="1"/>
</radialGradient>
</defs>
<desc>Coat of Arms of Canton of Freiburg (Fribourg)</desc>
<g>
<path d="m1.5 1.5v458.87c0 166.31 134.31 301.13 300 301.13 165.69 0 300-134.82 300-301.13v-458.87h-600z" fill="#2b5df2"/>
<path d="m414.57 417.5c10.817 18.972 17 40.927 17 64.328 0 71.838-58.235 130.07-130.07 130.07-71.837 0-130.07-58.234-130.07-130.07 0-23.401 6.185-45.357 17.001-64.329-30.622 29.591-49.669 71.083-49.669 117.03 0 89.878 72.862 162.74 162.74 162.74s162.74-72.861 162.74-162.74c1e-3 -45.946-19.046-87.438-49.667-117.03z" fill="#fcef3c" stroke="#000" stroke-width="3"/>
<g transform="matrix(.98881 0 0 .98881 4.4449 -.39854)" stroke="#000">
<polygon transform="translate(-.038 -.045)" points="300.8 308.75 283.9 323.9 300.8 499.04 317.7 323.9" fill="#fcef3c" stroke-linecap="round" stroke-width="3"/>
<polygon transform="translate(-.038 -.045)" points="374.7 294.03 510.38 372.76 396.81 259.67 376.16 259.67" fill="#fcef3c" stroke-linecap="round" stroke-width="3"/>
<polygon transform="translate(-.038 -.045)" points="240.27 305.63 79.942 374.33 212.55 275.43 233.21 275.43" fill="#fcef3c" stroke-linecap="round" stroke-width="3"/>
<polygon transform="translate(-.038 -.045)" points="376.16 152.05 501.32 67.171 396.81 184.89 376.16 184.89" fill="#fcef3c" stroke-linecap="round" stroke-width="3"/>
<polygon transform="translate(-.038 -.045)" points="221.15 156.96 103.45 86.5 203.02 189.8 221.15 189.8" fill="#fcef3c" stroke-linecap="round" stroke-width="3"/>
<polygon transform="translate(-.038 -.045)" points="300.8 41.542 289.56 119.88 300.8 129.73 312.05 119.88" fill="#fcef3c" stroke-linecap="round" stroke-width="3"/>
<path d="m197.95 215.97c-15.908-15.908-39.163-7.279-50.655-0.488s-31.342 12.015-47.536 3.657-43.357-8.358-58.506 20.373c28.992-14.888 40.092-14.496 55.894 1.306s27.455 23.507 47.536 12.276c9.733-5.444 16.324-12.407 24.29-4.441 7.967 7.966 19.848 9.097 32.517 1.153l15.148-15.147-18.688-18.689z" fill="#fcef3c" stroke-linecap="round" stroke-width="3"/>
<path d="m400.92 246.37c14.461 17.233 43.034 11.318 54.739 4.901 13.896-7.618 27.951-9.237 43.354 0.5 15.404 9.738 42.464 12.105 60.06-15.196-21.574 8.855-31.937 6.765-46.301-6.172-16.605-14.956-28.885-24.233-50.147-13.878-12.324 6.001-24.652 8.245-34.128 2.149-9.658-6.213-15.713-7.763-25.072-4.906l-16.984 14.864 14.479 17.738z" fill="#fcef3c" stroke-linecap="round" stroke-width="3"/>
<path d="m173.93 63.992c23.333-1.393 43.511 4.051 46.491 21.765 1.567 9.316 7.835 11.405 15.932 12.973 8.097 1.567 19.92 9.817 21.453 29.852v16.639l-17.537-6.37c0-12.958-7.833-18.704-15.93-20.271s-21.156-9.925-21.156-21.939c0-12.015-10.187-27.686-29.253-32.649z" fill="#fcef3c" stroke-linecap="round" stroke-width="3"/>
<path d="m391.76 48.582c10.186 22.723 9.062 40.906-5.877 48.972-13.06 7.052-28.051 22.567-25.571 40.614l-21.05 10.971-3.459-23.801c-1.504-14.071 4.896-30.917 21.219-36.794 18.072-6.506 34.738-16.194 34.738-39.962z" fill="#fcef3c" stroke-linecap="round" stroke-width="3"/>
<path d="m250.47 312.15c-3.757 9.198-16.642 8.849-25.174 30.615-8.533 21.765 1.916 36.74-13.06 48.58-14.975 11.841-25.771 26.119-14.975 43.531 3.135-19.501 18.458-23.681 30.298-29.949s17.064-12.536 17.064-32.039c0-33.432 30.876-31.359 34.243-49.982l-6.732-17.579-21.664 6.823z" fill="#fcef3c" stroke-linecap="round" stroke-width="3"/>
<path d="m336.66 318.82c-3.229 15.069-6.844 27.778 19.755 48.152 16.367 12.538 3.48 35.523 16.367 56.766 12.885 21.242 36.914 14.626 36.914 14.626-21.938-12.537-18.806-27.164-17.063-47.015 1.74-19.85-2.263-34.998-20.547-47.709s-9.824-38.755-9.824-38.755l-17.688-10-7.914 23.935z" fill="#fcef3c" stroke-linecap="round" stroke-width="3"/>
<circle transform="translate(-.038 -.045)" cx="300.8" cy="222.28" r="103.01" fill="#fcef3c" stroke-width="3"/>
<path d="m348.38 262.8s-22.39 28.52-47.604 28.52c-25.213 0-47.604-28.52-47.604-28.52" fill="none" stroke-linecap="round" stroke-linejoin="round" stroke-width="3.5"/>
<path d="m247.96 270.19s3.916-7.773 12.76-14.476" fill="none" stroke-linecap="round" stroke-linejoin="round" stroke-width="3.5"/>
<path d="m352.62 263.25s0.307-4.496-3.985-4.905" fill="none" stroke-linecap="round" stroke-linejoin="round" stroke-width="3.5"/>
<path d="m335.64 275.73c-10.613 2.399-13.106 0-34.856 0-21.749 0-24.242 2.399-34.856 0" fill="none" stroke-linecap="round" stroke-linejoin="round" stroke-width="3.5"/>
<path d="m284.68 252.57c3.656 1.306 6.058 7.052 16.088 7.052s9.509-6.269 17.604-10.97" fill="none" stroke-linecap="round" stroke-linejoin="round" stroke-width="3.5"/>
<path d="m231.92 218.62s14.528-8.352 27.686-3.918c8.01 2.699 10.012 2.699 11.753 2.699" fill="none" stroke-linecap="round" stroke-linejoin="round" stroke-width="3.5"/>
<circle transform="translate(-.038 -.045)" cx="250.76" cy="218.66" r="3.047" stroke-linecap="round" stroke-linejoin="round" stroke-width="3.5"/>
<path d="m236.79 194.03s16.453-0.313 28.207 16.055" fill="none" stroke-linecap="round" stroke-linejoin="round" stroke-width="3.5"/>
<path d="m369.61 218.62s-14.529-8.352-27.687-3.918c-8.01 2.699-10.012 2.699-11.753 2.699" fill="none" stroke-linecap="round" stroke-linejoin="round" stroke-width="3.5"/>
<circle transform="translate(-.038 -.045)" cx="350.84" cy="218.66" r="3.047" stroke-linecap="round" stroke-linejoin="round" stroke-width="3.5"/>
<path d="m364.73 194.03s-16.453-0.313-28.206 16.055" fill="none" stroke-linecap="round" stroke-linejoin="round" stroke-width="3.5"/>
</g>
</g>
<g>
<path d="m1.5 1.5v458.87c0 166.31 134.31 301.13 300 301.13 165.69 0 300-134.82 300-301.13v-458.87h-600z" fill="url(#a)"/>
<path d="m1.5 1.5v458.87c0 166.31 134.31 301.13 300 301.13 165.69 0 300-134.82 300-301.13v-458.87h-600z" fill="none" stroke="#000" stroke-width="3"/>
</g>
</svg>

<?xml version="1.0" encoding="UTF-8" standalone="no"?>
<svg
   xmlns:dc="http://purl.org/dc/elements/1.1/"
   xmlns:cc="http://creativecommons.org/ns#"
   xmlns:rdf="http://www.w3.org/1999/02/22-rdf-syntax-ns#"
   xmlns:svg="http://www.w3.org/2000/svg"
   xmlns="http://www.w3.org/2000/svg"
   xmlns:xlink="http://www.w3.org/1999/xlink"
   xmlns:sodipodi="http://sodipodi.sourceforge.net/DTD/sodipodi-0.dtd"
   xmlns:inkscape="http://www.inkscape.org/namespaces/inkscape"
   height="763"
   width="603"
   version="1.0"
   id="svg20"
   sodipodi:version="0.32"
   inkscape:version="0.46"
   sodipodi:docname="Grandson-coat_of_arms.svg"
   sodipodi:docbase="C:\Documents and Settings\Steve\Bureau\Blason Villages Suisse pour Wikipédia (par Delta-9)"
   inkscape:output_extension="org.inkscape.output.svg.inkscape">
  <metadata
     id="metadata31">
    <rdf:RDF>
      <cc:Work
         rdf:about="">
        <dc:format>image/svg+xml</dc:format>
        <dc:type
           rdf:resource="http://purl.org/dc/dcmitype/StillImage" />
        <dc:date>07-AUG-2006</dc:date>
        <dc:creator>
          <cc:Agent>
            <dc:title>Jérôme BLUM (wagner51)</dc:title>
          </cc:Agent>
        </dc:creator>
        <cc:license
           rdf:resource="http://creativecommons.org/licenses/GPL/2.0/" />
        <dc:coverage />
        <dc:description>Gabarit pour le Projet:Blasons de WIkipédia</dc:description>
        <dc:subject>
          <rdf:Bag>
            <rdf:li>blason suisse modèle gabarit projet blasons</rdf:li>
          </rdf:Bag>
        </dc:subject>
        <dc:language>fr</dc:language>
        <dc:title>Gabrit d'un blason suisse</dc:title>
      </cc:Work>
      <cc:License
         rdf:about="http://creativecommons.org/licenses/GPL/2.0/">
        <cc:permits
           rdf:resource="http://web.resource.org/cc/Reproduction" />
        <cc:permits
           rdf:resource="http://web.resource.org/cc/Distribution" />
        <cc:requires
           rdf:resource="http://web.resource.org/cc/Notice" />
        <cc:permits
           rdf:resource="http://web.resource.org/cc/DerivativeWorks" />
        <cc:requires
           rdf:resource="http://web.resource.org/cc/ShareAlike" />
        <cc:requires
           rdf:resource="http://web.resource.org/cc/SourceCode" />
      </cc:License>
    </rdf:RDF>
  </metadata>
  <defs
     id="defs29">
    <inkscape:perspective
       sodipodi:type="inkscape:persp3d"
       inkscape:vp_x="0 : 381.5 : 1"
       inkscape:vp_y="0 : 1000 : 0"
       inkscape:vp_z="603 : 381.5 : 1"
       inkscape:persp3d-origin="301.5 : 254.33333 : 1"
       id="perspective28" />
    <linearGradient
       id="linearGradient2893">
      <stop
         style="stop-color:#ffffff;stop-opacity:0.3137255;"
         offset="0"
         id="stop2895" />
      <stop
         id="stop2897"
         offset="0.19"
         style="stop-color:#ffffff;stop-opacity:0.25098041;" />
      <stop
         style="stop-color:#6b6b6b;stop-opacity:0.1254902;"
         offset="0.60000002"
         id="stop2901" />
      <stop
         style="stop-color:#000000;stop-opacity:0.1254902;"
         offset="1"
         id="stop2899" />
    </linearGradient>
    <linearGradient
       id="linearGradient2955">
      <stop
         style="stop-color:white;stop-opacity:0;"
         offset="0"
         id="stop2965" />
      <stop
         style="stop-color:black;stop-opacity:0.64583331;"
         offset="1"
         id="stop2959" />
    </linearGradient>
    <radialGradient
       inkscape:collect="always"
       xlink:href="#linearGradient2893"
       id="radialGradient3236"
       gradientUnits="userSpaceOnUse"
       gradientTransform="matrix(1.215027,1.531577e-24,1.464684e-23,1.266667,-839.1924,-490.4894)"
       cx="858.04236"
       cy="579.93323"
       fx="858.04236"
       fy="579.93323"
       r="300" />
    <inkscape:perspective
       id="perspective2584"
       inkscape:persp3d-origin="297.63751 : 280.63 : 1"
       inkscape:vp_z="595.27502 : 420.94501 : 1"
       inkscape:vp_y="0 : 1000 : 0"
       inkscape:vp_x="0 : 420.94501 : 1"
       sodipodi:type="inkscape:persp3d" />
  </defs>
  <sodipodi:namedview
     inkscape:window-height="968"
     inkscape:window-width="1280"
     inkscape:pageshadow="2"
     inkscape:pageopacity="0.0"
     guidetolerance="10.0"
     gridtolerance="10.0"
     objecttolerance="10.0"
     borderopacity="1.0"
     bordercolor="#666666"
     pagecolor="#ffffff"
     id="base"
     inkscape:zoom="0.44714317"
     inkscape:cx="198.53504"
     inkscape:cy="496.33759"
     inkscape:window-x="1280"
     inkscape:window-y="22"
     inkscape:current-layer="layer2"
     showgrid="false"
     showguides="true"
     inkscape:guide-bbox="true">
    <sodipodi:guide
       orientation="horizontal"
       position="761.5"
       id="guide1885" />
    <sodipodi:guide
       orientation="vertical"
       position="1.5"
       id="guide1887" />
    <sodipodi:guide
       orientation="horizontal"
       position="1.5"
       id="guide1889" />
    <sodipodi:guide
       orientation="vertical"
       position="601.5"
       id="guide1891" />
    <sodipodi:guide
       orientation="vertical"
       position="301.50081"
       id="guide1893" />
  </sodipodi:namedview>
  <desc
     id="desc22">Coat of Arms of Canton of Freiburg (Fribourg)</desc>
  <g
     inkscape:groupmode="layer"
     id="layer1"
     inkscape:label="Fond écu"
     style="opacity:1;display:inline"
     sodipodi:insensitive="true">
    <path
       id="path1899"
       d="M 1.5,1.49998 L 1.5,460.3679 C 1.5,626.6785 135.81456,761.5 301.49999,761.5 C 467.18543,761.5 601.5,626.6785 601.5,460.3679 L 601.5,1.49998 L 1.5,1.49998 z"
       style="fill:#2b5df2;fill-opacity:1" />
  </g>
  <g
     inkscape:groupmode="layer"
     id="layer2"
     inkscape:label="Meubles"
     style="opacity:1;display:inline"
     sodipodi:insensitive="true">
    <path
       id="path2517"
       d="M 414.57,417.505 C 425.387,436.477 431.57,458.432 431.57,481.833 C 431.57,553.671 373.335,611.905 301.499,611.905 C 229.662,611.905 171.426,553.671 171.426,481.833 C 171.426,458.432 177.611,436.476 188.427,417.504 C 157.805,447.095 138.758,488.587 138.758,534.535 C 138.758,624.413 211.62,697.274 301.498,697.274 C 391.376,697.274 464.237,624.413 464.237,534.535 C 464.238,488.589 445.191,447.097 414.57,417.505 z"
       style="fill:#fcef3c;stroke:#000000;stroke-width:3" />
    <g
       id="g2757"
       transform="matrix(0.9888082,0,0,0.9888082,4.4448618,-0.3985399)">
      <polygon
         transform="translate(-3.8e-2,-4.5e-2)"
         style="fill:#fcef3c;stroke:#000000;stroke-width:3;stroke-linecap:round"
         points="300.801,308.746 283.9,323.905 300.801,499.043 317.701,323.905 300.801,308.746 "
         id="polygon2523" />
      <polygon
         transform="translate(-3.8e-2,-4.5e-2)"
         style="fill:#fcef3c;stroke:#000000;stroke-width:3;stroke-linecap:round"
         points="374.704,294.033 510.378,372.759 396.814,259.666 376.155,259.666 374.704,294.033 "
         id="polygon2525" />
      <polygon
         transform="translate(-3.8e-2,-4.5e-2)"
         style="fill:#fcef3c;stroke:#000000;stroke-width:3;stroke-linecap:round"
         points="240.267,305.628 79.942,374.326 212.546,275.431 233.206,275.431 240.267,305.628 "
         id="polygon2527" />
      <polygon
         transform="translate(-3.8e-2,-4.5e-2)"
         style="fill:#fcef3c;stroke:#000000;stroke-width:3;stroke-linecap:round"
         points="376.155,152.052 501.323,67.171 396.814,184.892 376.155,184.892 376.155,152.052 "
         id="polygon2529" />
      <polygon
         transform="translate(-3.8e-2,-4.5e-2)"
         style="fill:#fcef3c;stroke:#000000;stroke-width:3;stroke-linecap:round"
         points="221.147,156.956 103.449,86.5 203.021,189.796 221.147,189.796 221.147,156.956 "
         id="polygon2531" />
      <polygon
         transform="translate(-3.8e-2,-4.5e-2)"
         style="fill:#fcef3c;stroke:#000000;stroke-width:3;stroke-linecap:round"
         points="300.801,41.542 289.556,119.879 300.801,129.731 312.046,119.879 300.801,41.542 "
         id="polygon2533" />
      <path
         style="fill:#fcef3c;stroke:#000000;stroke-width:3;stroke-linecap:round"
         d="M 197.946,215.968 C 182.038,200.06 158.783,208.689 147.291,215.48 C 135.799,222.271 115.949,227.495 99.755,219.137 C 83.561,210.779 56.398,210.779 41.249,239.51 C 70.241,224.622 81.341,225.014 97.143,240.816 C 112.945,256.618 124.598,264.323 144.679,253.092 C 154.412,247.648 161.003,240.685 168.969,248.651 C 176.936,256.617 188.817,257.748 201.486,249.804 L 216.634,234.657 L 197.946,215.968 z"
         id="path2535" />
      <path
         style="fill:#fcef3c;stroke:#000000;stroke-width:3;stroke-linecap:round"
         d="M 400.925,246.37 C 415.386,263.603 443.959,257.688 455.664,251.271 C 469.56,243.653 483.615,242.034 499.018,251.771 C 514.422,261.509 541.482,263.876 559.078,236.575 C 537.504,245.43 527.141,243.34 512.777,230.403 C 496.172,215.447 483.892,206.17 462.63,216.525 C 450.306,222.526 437.978,224.77 428.502,218.674 C 418.844,212.461 412.789,210.911 403.43,213.768 L 386.446,228.632 L 400.925,246.37 z"
         id="path2537" />
      <path
         style="fill:#fcef3c;stroke:#000000;stroke-width:3;stroke-linecap:round"
         d="M 173.932,63.992 C 197.265,62.599 217.443,68.043 220.423,85.757 C 221.99,95.073 228.258,97.162 236.355,98.73 C 244.452,100.297 256.275,108.547 257.808,128.582 L 257.808,145.221 L 240.271,138.851 C 240.271,125.893 232.438,120.147 224.341,118.58 C 216.244,117.013 203.185,108.655 203.185,96.641 C 203.185,84.626 192.998,68.955 173.932,63.992 z"
         id="path2539" />
      <path
         style="fill:#fcef3c;stroke:#000000;stroke-width:3;stroke-linecap:round"
         d="M 391.761,48.582 C 401.947,71.305 400.823,89.488 385.884,97.554 C 372.824,104.606 357.833,120.121 360.313,138.168 L 339.263,149.139 L 335.804,125.338 C 334.3,111.267 340.7,94.421 357.023,88.544 C 375.095,82.038 391.761,72.35 391.761,48.582 z"
         id="path2541" />
      <path
         style="fill:#fcef3c;stroke:#000000;stroke-width:3;stroke-linecap:round"
         d="M 250.473,312.15 C 246.716,321.348 233.831,320.999 225.299,342.765 C 216.766,364.53 227.215,379.505 212.239,391.345 C 197.264,403.186 186.468,417.464 197.264,434.876 C 200.399,415.375 215.722,411.195 227.562,404.927 C 239.402,398.659 244.626,392.391 244.626,372.888 C 244.626,339.456 275.502,341.529 278.869,322.906 L 272.137,305.327 L 250.473,312.15 z"
         id="path2543" />
      <path
         style="fill:#fcef3c;stroke:#000000;stroke-width:3;stroke-linecap:round"
         d="M 336.659,318.815 C 333.43,333.884 329.815,346.593 356.414,366.967 C 372.781,379.505 359.894,402.49 372.781,423.733 C 385.666,444.975 409.695,438.359 409.695,438.359 C 387.757,425.822 390.889,411.195 392.632,391.344 C 394.372,371.494 390.369,356.346 372.085,343.635 C 353.801,330.924 362.261,304.88 362.261,304.88 L 344.573,294.88 L 336.659,318.815 z"
         id="path2545" />
      <circle
         transform="translate(-3.8e-2,-4.5e-2)"
         id="circle2547"
         r="103.012"
         cy="222.28"
         cx="300.80099"
         sodipodi:cx="300.80099"
         sodipodi:cy="222.28"
         sodipodi:rx="103.012"
         sodipodi:ry="103.012"
         style="fill:#fcef3c;stroke:#000000;stroke-width:3" />
      <path
         id="path2553"
         d="M 348.384,262.801 C 348.384,262.801 325.994,291.321 300.78,291.321 C 275.567,291.321 253.176,262.801 253.176,262.801"
         style="fill:none;stroke:#000000;stroke-width:3.5;stroke-linecap:round;stroke-linejoin:round" />
      <path
         id="path2555"
         d="M 247.961,270.193 C 247.961,270.193 251.877,262.42 260.721,255.717"
         style="fill:none;stroke:#000000;stroke-width:3.5;stroke-linecap:round;stroke-linejoin:round" />
      <path
         id="path2557"
         d="M 352.619,263.254 C 352.619,263.254 352.926,258.758 348.634,258.349"
         style="fill:none;stroke:#000000;stroke-width:3.5;stroke-linecap:round;stroke-linejoin:round" />
      <path
         id="path2559"
         d="M 335.636,275.728 C 325.023,278.127 322.53,275.728 300.78,275.728 C 279.031,275.728 276.538,278.127 265.924,275.728"
         style="fill:none;stroke:#000000;stroke-width:3.5;stroke-linecap:round;stroke-linejoin:round" />
      <path
         style="fill:none;stroke:#000000;stroke-width:3.5;stroke-linecap:round;stroke-linejoin:round"
         d="M 284.675,252.569 C 288.331,253.875 290.733,259.621 300.763,259.621 C 310.793,259.621 310.272,253.352 318.367,248.651"
         id="path2561" />
      <path
         id="path2565"
         d="M 231.915,218.615 C 231.915,218.615 246.443,210.263 259.601,214.697 C 267.611,217.396 269.613,217.396 271.354,217.396"
         style="fill:none;stroke:#000000;stroke-width:3.5;stroke-linecap:round;stroke-linejoin:round" />
      <circle
         transform="translate(-3.8e-2,-4.5e-2)"
         id="circle2567"
         r="3.0469999"
         cy="218.66"
         cx="250.758"
         sodipodi:cx="250.758"
         sodipodi:cy="218.66"
         sodipodi:rx="3.0469999"
         sodipodi:ry="3.0469999"
         style="stroke:#000000;stroke-width:3.5;stroke-linecap:round;stroke-linejoin:round" />
      <path
         id="path2569"
         d="M 236.793,194.028 C 236.793,194.028 253.246,193.715 265,210.083"
         style="fill:none;stroke:#000000;stroke-width:3.5;stroke-linecap:round;stroke-linejoin:round" />
      <path
         id="path2573"
         d="M 369.611,218.615 C 369.611,218.615 355.082,210.263 341.924,214.697 C 333.914,217.396 331.912,217.396 330.171,217.396"
         style="fill:none;stroke:#000000;stroke-width:3.5;stroke-linecap:round;stroke-linejoin:round" />
      <circle
         transform="translate(-3.8e-2,-4.5e-2)"
         id="circle2575"
         r="3.0469999"
         cy="218.66"
         cx="350.84299"
         sodipodi:cx="350.84299"
         sodipodi:cy="218.66"
         sodipodi:rx="3.0469999"
         sodipodi:ry="3.0469999"
         style="stroke:#000000;stroke-width:3.5;stroke-linecap:round;stroke-linejoin:round" />
      <path
         id="path2577"
         d="M 364.733,194.028 C 364.733,194.028 348.28,193.715 336.527,210.083"
         style="fill:none;stroke:#000000;stroke-width:3.5;stroke-linecap:round;stroke-linejoin:round" />
    </g>
  </g>
  <g
     inkscape:groupmode="layer"
     id="layer3"
     inkscape:label="Reflet final"
     style="display:inline"
     sodipodi:insensitive="true">
    <path
       style="fill:url(#radialGradient3236);fill-opacity:1"
       d="M 1.5,1.5 L 1.5,460.3679 C 1.5,626.67854 135.81454,761.5 301.49993,761.5 C 467.1854,761.5 601.5,626.67854 601.5,460.3679 L 601.5,1.5 L 1.5,1.5 z"
       id="path2346" />
  </g>
  <g
     inkscape:groupmode="layer"
     id="layer4"
     inkscape:label="Contour final"
     style="display:inline"
     sodipodi:insensitive="true">
    <path
       style="fill:none;fill-opacity:1;stroke:#000000;stroke-width:3;stroke-miterlimit:4;stroke-dasharray:none;stroke-opacity:1"
       d="M 1.5,1.5 L 1.5,460.36794 C 1.5,626.67854 135.81454,761.5 301.49993,761.5 C 467.1854,761.5 601.5,626.67854 601.5,460.36794 L 601.5,1.5 L 1.5,1.5 z "
       id="path3239" />
  </g>
</svg>
